contribs/icons/morprom.svg

<?xml version="1.0" encoding="UTF-8" standalone="no"?>
<svg
   version="1.1"
   viewBox="0 0 192 192"
   xml:space="preserve"
   id="svg4"
   sodipodi:docname="morprom.svg"
   inkscape:version="1.2.2 (b0a8486541, 2022-12-01)"
   xmlns:inkscape="http://www.inkscape.org/namespaces/inkscape"
   xmlns:sodipodi="http://sodipodi.sourceforge.net/DTD/sodipodi-0.dtd"
   xmlns="http://www.w3.org/2000/svg"
   xmlns:svg="http://www.w3.org/2000/svg"><defs
   id="defs8"><clipPath
     clipPathUnits="userSpaceOnUse"
     id="clipPath982"><path
       d="m 51.8597,70.0963 h 4.9492 v -1.0225 h -4.9492 z"
       id="path980" /></clipPath></defs><sodipodi:namedview
   id="namedview6"
   pagecolor="#505050"
   bordercolor="#eeeeee"
   borderopacity="1"
   inkscape:showpageshadow="0"
   inkscape:pageopacity="0"
   inkscape:pagecheckerboard="0"
   inkscape:deskcolor="#505050"
   showgrid="false"
   inkscape:zoom="2.75817"
   inkscape:cx="-51.84597"
   inkscape:cy="46.770141"
   inkscape:window-width="1918"
   inkscape:window-height="1053"
   inkscape:window-x="0"
   inkscape:window-y="0"
   inkscape:window-maximized="1"
   inkscape:current-layer="svg4" />
	 <path
   style="fill:#71a372;stroke-linecap:round;stroke-linejoin:round;stop-color:#000000"
   d="m 29.935,20 h 132.13 c 5.50399,0 9.935,4.43101 9.935,9.935 v 132.13 c 0,5.50399 -4.43101,9.935 -9.935,9.935 H 29.935 C 24.43101,172 20,167.56899 20,162.065 V 29.935 C 20,24.43101 24.43101,20 29.935,20 Z"
   id="path1271" /><path
   id="path9869"
   style="fill:#ffffff;fill-opacity:1;stroke-width:2;stroke-linecap:round;stroke-linejoin:round;stop-color:#000000"
   d="M 92.442696,56.725119 A 16.142689,16.142689 0 0 0 76.299328,72.866295 16.142689,16.142689 0 0 0 81.719104,84.915834 C 73.22381,86.514793 65.027268,90.309875 58.858456,96.94787 l 8.697461,7.45466 C 83.059336,87.928668 98.30963,87.479905 113.63386,88.998717 110.49727,87.350009 106.82671,86.056001 102.85338,85.198091 A 16.142689,16.142689 0 0 0 108.58387,72.866295 16.142689,16.142689 0 0 0 92.442696,56.725119 Z m 0,5.966787 A 10.174376,10.174376 0 0 1 102.61708,72.866295 10.174376,10.174376 0 0 1 92.442696,83.040683 10.174376,10.174376 0 0 1 82.268297,72.866295 10.174376,10.174376 0 0 1 92.442696,62.691906 Z" /><path
   id="rect10370"
   style="fill:#ffffff;fill-opacity:1;stroke-width:2;stroke-linecap:round;stroke-linejoin:round;stop-color:#000000"
   d="m 90.148806,92.212545 c -0.620633,0 -1.120277,0.499645 -1.120277,1.120277 v 5.139708 h -5.139707 c -0.620633,0 -1.120276,0.499643 -1.120276,1.120277 v 4.618953 c 0,0.62063 0.499643,1.12028 1.120276,1.12028 h 5.139707 v 5.13752 c 0,0.62063 0.499644,1.12027 1.120277,1.12027 h 4.618957 c 0.620634,0 1.120277,-0.49964 1.120277,-1.12027 v -5.13752 h 5.13752 c 0.62064,0 1.12028,-0.49965 1.12028,-1.12028 v -4.618953 c 0,-0.620634 -0.49964,-1.120277 -1.12028,-1.120277 h -5.13752 v -5.139708 c 0,-0.620632 -0.499643,-1.120277 -1.120277,-1.120277 z" /><path
   style="fill:#ffffff;fill-opacity:1;stroke-width:2;stroke-linecap:round;stroke-linejoin:round;stop-color:#000000"
   d="m 73.745243,111.00897 c 8.452354,7.59669 15.740706,17.06619 21.490057,25.71615 7.40626,-13.28797 18.46545,-27.35516 37.90625,-38.218025 V 83.435568 C 117.97476,91.296145 101.7872,108.9008 94.157929,122.19985 89.27918,117.16272 79.706101,111.05995 73.745243,111.00897 Z"
   id="path10386"
   sodipodi:nodetypes="cccccc" /><path
   style="fill:#ff837d;fill-opacity:1;stroke-width:2;stroke-linecap:round;stroke-linejoin:round;stop-color:#000000"
   d="m 73.745243,111.00897 c 8.452354,7.59669 15.740706,17.06619 21.490057,25.71615 7.40626,-13.28797 18.46545,-27.35516 37.90625,-38.218025 -14.46963,3.142585 -28.89759,15.563575 -38.983621,23.692755 -4.878749,-5.03713 -14.451828,-11.1399 -20.412686,-11.19088 z"
   id="path10398"
   sodipodi:nodetypes="ccccc" /></svg>

<?xml version="1.0" encoding="UTF-8"?><svg id="a" xmlns="http://www.w3.org/2000/svg" width="192" height="192" xmlns:xlink="http://www.w3.org/1999/xlink" viewBox="0 0 192 192"><defs><style>.i{fill:#ff837d;}.i,.j,.k,.l{stroke-width:0px;}.j{fill:none;}.m{clip-path:url(#e);}.k{fill:#fff;}.l{fill:#71a372;}</style><clipPath id="e"><path id="f" class="j" d="m73.75,111.01c8.45,7.6,15.74,17.07,21.49,25.72,7.41-13.29,18.47-27.36,37.91-38.22v-15.07c-15.17,7.86-31.35,25.47-38.98,38.76-4.88-5.04-14.45-11.14-20.41-11.19Z"/></clipPath></defs><path id="b" class="l" d="m29.93,20h132.13c5.5,0,9.93,4.43,9.93,9.94v132.13c0,5.5-4.43,9.93-9.93,9.93H29.93c-5.5,0-9.93-4.43-9.93-9.93V29.93c0-5.5,4.43-9.93,9.93-9.93Z"/><path id="c" class="k" d="m92.44,56.73c-8.92,0-16.14,7.23-16.14,16.14,0,4.61,1.98,8.99,5.42,12.05-8.5,1.6-16.69,5.39-22.86,12.03l8.7,7.45c15.5-16.47,30.75-16.92,46.08-15.4-3.14-1.65-6.81-2.94-10.78-3.8,3.63-3.07,5.73-7.58,5.73-12.33,0-8.91-7.23-16.14-16.14-16.14Zm0,5.97c5.62,0,10.17,4.56,10.17,10.17h0c0,5.62-4.56,10.17-10.17,10.17h0c-5.62,0-10.17-4.56-10.17-10.17h0c0-5.62,4.56-10.17,10.17-10.17h0Z"/><path id="d" class="k" d="m90.15,92.21c-.62,0-1.12.5-1.12,1.12v5.14h-5.14c-.62,0-1.12.5-1.12,1.12v4.62c0,.62.5,1.12,1.12,1.12h5.14v5.14c0,.62.5,1.12,1.12,1.12h4.62c.62,0,1.12-.5,1.12-1.12v-5.14h5.14c.62,0,1.12-.5,1.12-1.12v-4.62c0-.62-.5-1.12-1.12-1.12h-5.14v-5.14c0-.62-.5-1.12-1.12-1.12h-4.62Z"/><g class="m"><path id="g" class="k" d="m73.75,111.01c8.45,7.6,15.74,17.07,21.49,25.72,7.41-13.29,18.47-27.36,37.91-38.22v-15.07c-15.17,7.86-31.35,25.47-38.98,38.76-4.88-5.04-14.45-11.14-20.41-11.19Z"/><path id="h" class="i" d="m66.5,108.89c-4.5,9.44,11.56,34.39,29.5,34.11,19.56,9.28,61.5,7.06,37.14-44.49-14.47,3.14-28.9,15.56-38.98,23.69-8.27-17.8-21.7-13.26-27.66-13.31Z"/></g></svg>
